packages/kaspersky-hexa-ui-icons/src/iconsSVGs/28x20/FlagBa.svg

<svg width="28" height="20" viewBox="0 0 28 20" fill="none" xmlns="http://www.w3.org/2000/svg">
<g clip-path="url(#clip0_5138_444)">
<rect width="28" height="20" rx="2" fill="white"/>
<mask id="mask0_5138_444" style="mask-type:luminance" maskUnits="userSpaceOnUse" x="0" y="0" width="28" height="20">
<rect width="28" height="20" rx="2" fill="white"/>
</mask>
<g mask="url(#mask0_5138_444)">
<rect width="28" height="20" fill="#0B36B2"/>
<path fill-rule="evenodd" clip-rule="evenodd" d="M22.6667 20V0H8.66666L22.6667 20Z" fill="#FFD045"/>
<path fill-rule="evenodd" clip-rule="evenodd" d="M17.3333 18.6667L16.3905 18.9428L16.6667 18L16.3905 17.0572L17.3333 17.3334L18.2761 17.0572L18 18L18.2761 18.9428L17.3333 18.6667Z" fill="white"/>
<path fill-rule="evenodd" clip-rule="evenodd" d="M14.6667 14.6667L13.7239 14.9428L14 14L13.7239 13.0572L14.6667 13.3334L15.6095 13.0572L15.3333 14L15.6095 14.9428L14.6667 14.6667Z" fill="white"/>
<path fill-rule="evenodd" clip-rule="evenodd" d="M12 10.6667L11.0572 10.9428L11.3333 10L11.0572 9.05721L12 9.33335L12.9428 9.05721L12.6667 10L12.9428 10.9428L12 10.6667Z" fill="white"/>
<path fill-rule="evenodd" clip-rule="evenodd" d="M9.33333 6.66669L8.39052 6.94283L8.66667 6.00002L8.39052 5.05721L9.33333 5.33335L10.2761 5.05721L10 6.00002L10.2761 6.94283L9.33333 6.66669Z" fill="white"/>
<path fill-rule="evenodd" clip-rule="evenodd" d="M6.66667 2.66669L5.72386 2.94283L6 2.00002L5.72386 1.05721L6.66667 1.33335L7.60948 1.05721L7.33334 2.00002L7.60948 2.94283L6.66667 2.66669Z" fill="white"/>
</g>
</g>
<defs>
<clipPath id="clip0_5138_444">
<rect width="28" height="20" fill="white"/>
</clipPath>
</defs>
</svg>

<svg xmlns="http://www.w3.org/2000/svg" width="28" height="20" fill="none" viewBox="0 0 28 20"><g clip-path="url(#a)"><rect width="28" height="20" fill="#fff" rx="2"/><mask id="b" width="28" height="20" x="0" y="0" maskUnits="userSpaceOnUse" style="mask-type:luminance"><rect width="28" height="20" fill="#fff" rx="2"/></mask><g mask="url(#b)"><path fill="#0b36b2" d="M0 0h28v20H0z"/><path fill="#ffd045" fill-rule="evenodd" d="M22.6667 20V0h-14z" clip-rule="evenodd"/><path fill="#fff" fill-rule="evenodd" d="m17.333 18.667-.943.276.276-.943-.276-.943.943.276.943-.276L18 18l.276.943zm-2.666-4-.943.276L14 14l-.276-.943.943.276.943-.276-.276.943.276.943zm-2.667-4-.943.276.276-.943-.276-.943.943.276.943-.276-.276.943.276.943zm-2.667-4-.943.276L8.667 6l-.276-.943.943.276.943-.276L10 6l.276.943zm-2.666-4-.943.276L6 2l-.276-.943.943.276.943-.276L7.333 2l.276.943z" clip-rule="evenodd"/></g></g><defs><clipPath id="a"><path fill="#fff" d="M0 0h28v20H0z"/></clipPath></defs></svg>
